site/themes/s2b_hugo_theme/static/img/cal/icons/facebook.svg

<svg xmlns="http://www.w3.org/2000/svg" xmlns:xlink="http://www.w3.org/1999/xlink" width="80" height="80" viewBox="0 0 80 80">
  <defs>
    <circle id="a" cx="40" cy="40" r="32"/>
  </defs>
  <g fill="none" fill-rule="evenodd">
    <use fill="#3C5A99" xlink:href="#a"/>
    <circle cx="40" cy="40" r="33.5" stroke="#FFFFFF" stroke-width="3"/>
    <path fill="#FFFFFF" fill-rule="nonzero" d="M43.876362,66 L43.876362,42.7364291 L51.5419021,42.7364291 L52.689708,33.6702027 L43.876362,33.6702027 L43.876362,27.88199 C43.876362,25.2571083 44.59191,23.4683379 48.2870395,23.4683379 L53,23.4662401 L53,15.3573345 C52.1849114,15.2468475 49.3872489,15 46.1323863,15 C39.3373114,15 34.6852194,19.2250783 34.6852194,26.9841084 L34.6852194,33.6702027 L27,33.6702027 L27,42.7364291 L34.6852194,42.7364291 L34.6852194,66 L43.876362,66 Z"/>
  </g>
</svg>

<svg xmlns="http://www.w3.org/2000/svg" width="80" height="80"><defs><circle id="a" cx="40" cy="40" r="32"/></defs><g fill="none" fill-rule="evenodd"><use fill="#3C5A99" href="#a"/><circle cx="40" cy="40" r="33.5" stroke="#FFF" stroke-width="3"/><path fill="#FFF" fill-rule="nonzero" d="M43.876 66V42.736h7.666l1.148-9.066h-8.814v-5.788c0-2.625.716-4.414 4.411-4.414L53 23.466v-8.109c-.815-.11-3.613-.357-6.868-.357-6.795 0-11.447 4.225-11.447 11.984v6.686H27v9.066h7.685V66h9.191Z"/></g></svg>
